public/stylesheets/font/svgs/solid/won-sign.svg

<svg viewBox="0 0 576 512" xmlns="http://www.w3.org/2000/svg"><path d="m564 192c6.627 0 12-5.373 12-12v-40c0-6.627-5.373-12-12-12h-48.028l18.572-80.61c1.732-7.518-3.978-14.694-11.693-14.694h-46.107a11.998 11.998 0 0 0 -11.736 9.5l-14.278 85.804h-109.891l-19.725-85.987a12 12 0 0 0 -11.696-9.317h-43.988a12 12 0 0 0 -11.687 9.277l-20.047 86.027h-108.721l-17.475-85.701a12 12 0 0 0 -11.758-9.602h-42.114c-7.686 0-13.39 7.124-11.709 14.624l18.081 80.679h-48c-6.627 0-12 5.373-12 12v40c0 6.627 5.373 12 12 12h62.342l7.171 32h-69.513c-6.627 0-12 5.373-12 12v40c0 6.627 5.373 12 12 12h83.856l40.927 182.624a12 12 0 0 0 11.709 9.376h56.767c5.583 0 10.428-3.85 11.689-9.288l42.387-182.712h55.086l42.386 182.712a12 12 0 0 0 11.689 9.288h56.826a12 12 0 0 0 11.694-9.306l42.092-182.694h84.892c6.627 0 12-5.373 12-12v-40c0-6.627-5.373-12-12-12h-70.146l7.373-32zm-425.976 0h80.757l-7.457 32h-66.776zm45.796 150.029c-6.194 25.831-6.758 47.25-7.321 47.25h-1.126s-1.689-22.05-6.758-47.25l-11.016-54.029h38.812zm90.362-118.029 1.996-8.602c1.856-7.962 3.457-15.968 4.803-23.398h11.794c1.347 7.43 2.947 15.436 4.803 23.398l1.996 8.602zm130.959 118.029c-5.068 25.2-6.758 47.25-6.758 47.25h-1.126c-.563 0-1.126-21.42-7.321-47.25l-12.394-54.029h39.107zm25.14-118.029h-67.42l-7.34-32h81.577z"/></svg>

<svg xmlns="http://www.w3.org/2000/svg" viewBox="0 0 576 512"><path d="M564 192c6.627 0 12-5.373 12-12v-40c0-6.627-5.373-12-12-12h-48.028l18.572-80.61c1.732-7.518-3.978-14.694-11.693-14.694h-46.107a11.998 11.998 0 0 0-11.736 9.5L450.73 128H340.839l-19.725-85.987a12 12 0 0 0-11.696-9.317H265.43a12 12 0 0 0-11.687 9.277L233.696 128H124.975L107.5 42.299a12 12 0 0 0-11.758-9.602H53.628c-7.686 0-13.39 7.124-11.709 14.624L60 128H12c-6.627 0-12 5.373-12 12v40c0 6.627 5.373 12 12 12h62.342l7.171 32H12c-6.627 0-12 5.373-12 12v40c0 6.627 5.373 12 12 12h83.856l40.927 182.624A12 12 0 0 0 148.492 480h56.767c5.583 0 10.428-3.85 11.689-9.288L259.335 288h55.086l42.386 182.712A12 12 0 0 0 368.496 480h56.826a12 12 0 0 0 11.694-9.306L479.108 288H564c6.627 0 12-5.373 12-12v-40c0-6.627-5.373-12-12-12h-70.146l7.373-32H564zm-425.976 0h80.757l-7.457 32h-66.776l-6.524-32zm45.796 150.029c-6.194 25.831-6.758 47.25-7.321 47.25h-1.126s-1.689-22.05-6.758-47.25L157.599 288h38.812l-12.591 54.029zM274.182 224l1.996-8.602c1.856-7.962 3.457-15.968 4.803-23.398h11.794c1.347 7.43 2.947 15.436 4.803 23.398l1.996 8.602h-25.392zm130.959 118.029c-5.068 25.2-6.758 47.25-6.758 47.25h-1.126c-.563 0-1.126-21.42-7.321-47.25L377.542 288h39.107l-11.508 54.029zM430.281 224h-67.42l-7.34-32h81.577l-6.817 32z"/></svg>
